X: 229
T: Bağlandı Gönül Zülfüne...
C: Selânikli Ahmed Bey
O: Turkey
F: http://compmusic.upf.edu/node/140
N: huzzam--sarki--turkaksagi--baglandi_gonul--selanikli_ahmed_bey
N: makam= huzzam
N: form= sarki
N: usul= turkaksagi = 5/8
M: 5/8
L: 1/16
K: C _1/4B _3/4e ^3/4f 
Q: 1/4=108
%%MIDI tuningsystem comma53
g2f2 g2f2 e2 | f2 e2f2 e2d2  | dcBc defg a_b | \
w:  ARANAĞME  |   |   | 
ag gfg6  | 
w:   | 
g2f2 g2f2 e2 | f2 e2f2 e2d2  | dcBc defg ed | \
w:  ARANAĞME  |   |   | 
dc cBB6  | 
w:   | 
f3g g4 f2 | g2 agg6  | a2g2 c'_bag gf | \
w:  Bağ *  lan  |  dı  gö *  nül   |  zül  | 
fe edd6  | 
w:  fü *  ne  *  bir   | 
g2f2 g2f2 g2 | a2 _bc'ag fed2  | aggf fgfe ed | 
w:  yos  |   |  ma  *  ci *  vâ  | 
d4dc B^AB2  | f3g g4 f2 | g2 agg6  | a2g2 c'_bag gf | 
w:  nın   SAZ  |  Bağ *  lan  |  dı  gö *  nül   |  zül  | 
fe edd6  | g2f2 g2f2 g2 | a2 _bc'ag fed2  | \
w:  fü *  ne  *  bir   |  yos  |   | 
aggf fgfe ed | 
w:  ma  *  ci *  vâ  | 
d4cd efg2  | a3g f2g2 ab | c'2 _baag feed  | 
w:  nın   SAZ  |  Sev *  da  |  sı na  *  düş  | 
dcde fgag gf | fe ede4d2  | a2g2 f2e2 d2 | 
w:  tü   |  yi *  ne  *  bir   |  â  | 
f2 gfe2 d2c2  | d2d2 dedc cB | B4cd efg2  | \
w:   |  fet_ i  câ  |  nın   SAZ  | 
a3g f2g2 ab | 
w:  Sev *  da  | 
c'2 _baag feed  | dcde fgag gf | fe ede4d2  | 
w:  sı na  *  düş  |  tü   |  yi *  ne  *  bir   | 
a2g2 f2e2 d2 | f2 gfe2 d2c2  | d2d2 dedc cB | \
w:  â  |   |  fet_ i  câ  | 
B4gf g^ab2  | 
w:  nın   SAZ  | 
g4 b6 | c'2 baa4g2  | ag=f_1/4e defg ed | \
w:  Â zâ  |  de_ i  *  aşk   |  ol  | 
dc cBB6  | 
w:  muş_ *  i *  ken   | 
g2f2 g2f2 g2 | a2 _bc'ag fed2  | aggf fgfe ed | 
w:  hay  |   |  li  *  za *  man  | 
d4gf g^ab2  | g4 b6 | c'2 baa4g2  | ag=f_1/4e defg ed | 
w:  dır   SAZ  |  Â zâ  |  de_ i  *  aşk   |  ol  | 
dc cBB6  | g2f2 g2f2 g2 | a2 _bc'ag fed2  | \
w:  muş_ *  i *  ken   |  hay  |   | 
aggf fgfe ed | 
w:  li  *  za *  man  | 
d4cd efg2  | a3g f2g2 ab | c'2 _baag feed  | 
w:  dır   SAZ  |  Sev *  da  |  sı na  *  düş  | 
dcde fgag gf | fe ede4d2  | a2g2 f2e2 d2 | 
w:  tü   |  yi *  ne  *  bir   |  â  | 
f2 gfe2 d2c2  | d2d2 dedc cB | B4cd efg2  | \
w:   |  fet_ i  câ  |  nın   SAZ  | 
a3g f2g2 ab | 
w:  Sev *  da  | 
c'2 _baag feed  | dcde fgag gf | fe ede4d2  | 
w:  sı na  *  düş  |  tü   |  yi *  ne  *  bir   | 
a2g2 f2e2 d2 | f2 gfe2 d2c2  | d2d2 dedc cB | \
w:  â  |   |  fet_ i  câ  | 
B4|
w:  nın    | 


